X:266
T: Absage (3-68), S. 194
N: P1041
O: Lothringen
S: PINCK, Louis: Verklingende Weisen, Bd3, Metz 1933]
R: vergebliche Werbung]
M: 4/4
L: 1/8
K: G
G2 | d2d2A2c2 | B2A2G2
G2 | c2B2A2G2 | A2FED2
DD | GGG2A2A2 | d4
e4 | d2ABc2B2 | A4z2

@@@ Tune index: 7816
